!!!!SEGMENT: pl-kk--kk-i-385--011_anonim--omni-die.krn
!!!cenid: 17xx:1991
!!!COM: Anonim
!!!COM-rismid: pe30004985
!!!CDT:
!!!CNT:
!!!OTL: Omni Die
!!!PDT:
!!!AGN: Sacred
!!!SMS-siglum: PL-Kk
!!!SMS-shelfmark: Kk.I.385
!!!SMS-shelfwork: 011 W
!!!SMS-variant:
!!!SMS-altvar:
!!!NIFC-rismid: 1001143576
!!!URL-scan: http://repozytorium.nifc.pl/skany/pl-kk-nut--i-385
!!!ONB-nifc: UWAGA: numeracja zgodna z numeracją utworów w źródle
**kern	**text	**text	**kern	**text	**text	**kern	**text	**text
*part3	*part3	*part3	*part2	*part2	*part2	*part1	*part1	*part1
*staff3	*staff3	*staff3	*staff2	*staff2	*staff2	*staff1	*staff1	*staff1
*I"Tenore.	*	*	*I"Alto.	*	*	*I"Soprano.	*	*
*I'T.	*	*	*I'A.	*	*	*I'S.	*	*
*clefC4	*	*	*clefC3	*	*	*clefC1	*	*
*k[b-]	*	*	*k[b-]	*	*	*k[b-]	*	*
*F:	*	*	*F:	*	*	*F:	*	*
*M3/2	*	*	*M3/2	*	*	*M3/2	*	*
=1	=1	=1	=1	=1	=1	=1	=1	=1
1B-\	Om-	Ip-	1d\	Om-	Ip-	1g\	Om-	Ip-
*2\right	*	*	*2\right	*	*	*2\right	*	*
!LO:TX:t=P:problem:2\right:global	!	!	!LO:TX:t=P:problem:2\right:global	!	!	!LO:TX:t=P:problem:2\right:global	!	!
2c\	-ni	-sam	2f\	-ni	-sam	2a\	-ni	-sam
=2	=2	=2	=2	=2	=2	=2	=2	=2
1d\	di-	col-	1f\	di-	col-	1b-\	di-	col-
2d\	-e	-le	2f\	-e	-le	2b-\	-e	-le
=3	=3	=3	=3	=3	=3	=3	=3	=3
1c\	dic	ut	1f\	dic	ut	1a\	dic	ut
2B-\	Ma-	de	2d\	Ma-	de	2g\	Ma-	de
=4	=4	=4	=4	=4	=4	=4	=4	=4
1A\	-ri-	mo-	1d\	-ri-	mo-	1g\	-ri-	mo-
2A\	-e	-le	2d\	-e	-le	2f#X/	-e	-le
=5	=5	=5	=5	=5	=5	=5	=5	=5
1d\	me-	cri-	1f\	me-	cri-	1b-\	me-	cri-
2B-\	-a	-mi-	2g\	-a	-mi-	2g\	-a	-mi-
=6	=6	=6	=6	=6	=6	=6	=6	=6
1e-X\	lau-	-num	1g\	lau-	-num	1cc\	lau-	-num
[2d\	-des	te	2d\	-des	te	2b-\	-des	te
!LO:LB:g=original	!	!	!LO:LB:g=original	!	!	!	!	!
=7	=7	=7	=7	=7	=7	=7	=7	=7
2d\]	a-	li-	1f\	a-	li-	2b-\	a-	li-
!	!	!	!	!	!	!LO:LB:g=original	!	!
2.c\	.	.	.	.	.	2b-\	.	.
.	.	.	2f\	-ni-	-be-	2a\	-ni-	-be-
4c\	-ni-	-be	.	.	.	.	.	.
=8	=8	=8	=8	=8	=8	=8	=8	=8
1.B-\	-ma	ret	1.d\	-ma	-ret,	1.b-\	-ma	-ret,
=9	=9	=9	=9	=9	=9	=9	=9	=9
1d\	e-	Hanc	1f\	e-	hanc	1b-\	e-	hanc
2d\	-ius	a-	2f\	-ius	a-	2b-\	-jus	a-
=10	=10	=10	=10	=10	=10	=10	=10	=10
1c\	fes-	-pel-	1f\	fes-	-pel-	1b-\	fes-	-pel-
2c\	-ta	-la	2f\	-ta	-la	2a\	-ta	-la
=11	=11	=11	=11	=11	=11	=11	=11	=11
1B-\	e-	ne	1d\	e-	ne	2a\	e-	ne
.	.	.	.	.	.	1g\	-ius	pro-
2B-\	-ius	pro-	2g\	-ius	pro-	.	.	.
=12	=12	=12	=12	=12	=12	=12	=12	=12
1A\	ges-	-cel-	1g\	ge-	-cel-	1dd\	ge-	-cel-
2A\	-ta	-la	2f#X\	-sta	-la	2dd\	-sta	-la
=13	=13	=13	=13	=13	=13	=13	=13	=13
2.B-\	col-	vi-	2.g\	co-	vi-	2.dd\	col-	vi-
!LO:TX:t=P:problem:all\right	!	!	!LO:TX:t=P:problem:all\right	!	!	!	!	!
4c\	-le	-ti-	4a\	-le	-ti-	4cc\	-le	-ti-
2d\	de-	-o-	2b-\	de-	-o-	2b-\	De-	-o-
!!linebreak:original
!LO:LB:g=original	!	!	!LO:LB:g=original	!	!	!LO:LB:g=original	!	!
=14	=14	=14	=14	=14	=14	=14	=14	=14
4c\	-vo-	-rum	4a\	-vo-	-rum	2ee-X\	-vo-	-rum
4B-\	.	.	4g\	.	.	.	.	.
2.A\	-ti-	su-	2g\	-tis-	su-	2.dd\	-tis-	su-
.	.	.	2f#X\	-si-	-pe-	.	.	.
4A\	-si-	-pe-	.	.	.	4cc\	-si-	-pe-
=15	=15	=15	=15	=15	=15	=15	=15	=15
1.G/	-ma	-ret,	1.g\	-ma	-ret,	1.bn\	-ma	-ret,
=16||	=16||	=16||	=16||	=16||	=16||	=16||	=16||	=16||
*M4/4	*	*	*M4/4	*	*	*M4/4	*	*
*met(c)	*	*	*met(c)	*	*	*met(c)	*	*
!LO:TX:a:t=P:problem:metrum C z kropką	!	!	!LO:TX:a:t=P:problem:metrum C z kropką	!	!	!LO:TX:a:t=P:problem:metrum C z kropką	!	!
!LO:TX:a:t=P:problem:all\right	!	!	!	!	!	!LO:TX:t=P:problem:all\right	!	!
4B-\	Con-	Hec	4g\	Con-	Hec	4g\	Con-	Hec
4B-\	-tem-	per-	4f\	 ­ tem-	per-	4b-X\	 ­ tem-	per-
4B-\	-pla-	-so-	4g\	-pla-	-so-	4g\	-pla-	-so-
4B-\	-re	-na	4f\	-re	-na	4b-\	-re	-na
=17	=17	=17	=17	=17	=17	=17	=17	=17
4c\	et	no-	4f\	et	no-	4a\	et	no-
4c\	mi-	-bis	4c\	mi-	-bis	4g\	mi-	-bis
4c\	-ra-	do-	4f\	-ra-	do-	4a\	-ra-	do-
4c\	-re	-na	4en\	-re	-na	4g\	-re	-na
=18	=18	=18	=18	=18	=18	=18	=18	=18
4d\	e-	con-	4d\	e-	con-	4b-\	e-	con-
4d\	-ius	-tu-	4f#X\	-ius	-tu-	4a\	-ius	-tu-
4d\	cel-	-lit	4d\	cel-	-lit	4b-\	cel-	-lit
4e-X\	-si-	ce	4g\	-si-	ce-	4cc\	-si-	ce-
!LO:LB:g=original	!	!	!LO:LB:g=original	!	!	!LO:LB:g=original	!	!
=19	=19	=19	=19	=19	=19	=19	=19	=19
4.d\	-tu-	les-	4.g\	-tu-	-le-	4.a\	-tu-	-le-
8d\	-di-	-ti-	8f#X\	-di-	-sti-	8a\	-di-	-sti-
2d\	-nem	-a	2g\	-nem	-a	2g\	-nem	-a
=20	=20	=20	=20	=20	=20	=20	=20	=20
4e-X\	dic	Hec	4g\	dic	Hec	4g\	dic	hec
4e-\	fe-	Re-	4g\	fe-	Re-	4cc\	fe-	per-
4d\	-li-	-gi-	4g\	-li-	-gi-	4cc\	-li-	-so-
4d\	-cem	-na	4g\	-cem	-na	4bn\	-cem	-na
=21	=21	=21	=21	=21	=21	=21	=21	=21
4e\	ge-	nos	4g\	ge-	nos	4b-X\	ge-	no-
4e\	-ni-	di-	4g\	-ni-	di-	4ee-X\	-ni-	-bis
4B-\	-tri-	-vi-	4g\	-tri-	-vi-	4ee-\	-tri-	do-
4B-\	-cem	-na	4fn\	-cem	-na	4dd\	-cem	-na
=22	=22	=22	=22	=22	=22	=22	=22	=22
4B-\	dic	il-	4g\	dic	il-	4ee-X\	dic	il-
4B-\	be-	-lu-	4g\	be-	-lus-	4ee-\	be-	-lus-
8c\L	-a-	-stra-	4e-X\	-a-	-tra-	4cc\	-a-	-tra-
8d\J	.	.	.	.	.	.	.	.
4e-X\	-tam	-vit	4a-X\	-tam	-vit	4cc\	-tam	-vit
!!linebreak:original
=23	=23	=23	=23	=23	=23	=23	=23	=23
4.e\	vir-	gra-	4.f\	vir-	gra-	4.b-\	vir-	gra-
8d\	-gi-	-ti-	8f\	-gi-	-ti-	8b-\	-gi-	-ti-
!	!	!	!	!	!	!LO:LB:g=original	!	!
2e\	-nem	-a	2g\	-nem	-a	2b-\	-nem	-a
!LO:LB:g=original	!	!	!LO:LB:g=original	!	!	!	!	!
=24	=24	=24	=24	=24	=24	=24	=24	=24
4B-X\	dic	il-	4f\	dic	il-	4dd\	dic	il-
4f\	be-	-lu-	4f\	be-	-lus-	4dd\	be-	-lus-
4e-X\	-a-	-stra-	4g\	-a-	-tra-	4cc\	-a-	-tra-
8e-\L	-tam	-vit	8g\L	-tam	-vit	4b-\	-tam	-vit
8d\J	.	.	8f\J	.	.	.	.	.
=25	=25	=25	=25	=25	=25	=25	=25	=25
4.c\	vir-	gra-	4.f\	vir-	gra-	4b-\	vir-	gra-
.	.	.	.	.	.	4a\	-gi-	-ti-
8c\	-gi-	-ti-	8f\	-gi-	-ti-	.	.	.
!	!	!	!	!	!	!LO:TX:a:i:t=Da Capo.	!	!
2d\	-nem	-a	2f\	-nem.	-a.	2b-\	-nem	-a
==	==	==	==	==	==	==	==	==
*-	*-	*-	*-	*-	*-	*-	*-	*-
!!!system-decoration: [(s1,s2,s3)]
!!!EED: Leszek Kubiak
!!!EST: 2021-02-16
!!!ENC: Mateusz Solarz
!!!END: 2021-02-09
